X: 33923
T: Red Stockings, The
R: slip jig
M: 9/8
K: Aminor
FED E2A B2c|d3 d2e c2B|A2E C2E A2c|B2G D2B, A,2G,|
B,2A, G,2D EDC|D2E G2A B2d|c2E A2c BAG|1 A3-A3 E3:|2 A3-A2B c2d||
|:e2A A2c BAG|A2E E2c ~E3|B2e e2d c2A|BAG A2B c2d|
e2A A2c BAG|A2E E2c ~E3|1 B2e e2A B2e|e2A B2c d2^d:|
[2B2e e2d c2B|A3-A2B, C2B,|:A,2B, C2E A2c|~B3 A2E A2c|
~B3 A2E A2c|~B2AB2c d3|A,2B, C2E A2c|~B3 A2E A2c|
[1B2e e2d c2A|B2e e2d c2B:|2 B2e e2d c2B|A3-A3 E3||

